X: 7
T: Dowd's Favourite
R: reel
M: 4/4
L: 1/8
K: Gdor
F|D3G BABF|CF{G}F{E}F CFAF|DGGA B3/2{c}B/2{A}Bd|cAfA AGGF|DG .G/2.G/2.G BABF|CF{G}F{E}F CFAF|DGGA B3/2{c}B/2{A}Bd|cAfA AG G z||B2dB FBdB|DFBd cAFA|.B/2.B/2.B dB fB{c}B{A}B|.B/2.B/2.B dB cAFA|GBAc Bage|fdcA BG G z||g2df (g/2f/2g) bg|fdcA BG G z|g2df (g/2f/2g) bg|fcce fgcA|GBAc Bage|fdcA B2AF|G8|]


Tune 229	Setting 12922

